file/fedex.svg

<svg clip-rule="evenodd" fill-rule="evenodd" stroke-linejoin="round" stroke-miterlimit="1.41421" viewBox="0 0 560 400" xmlns="http://www.w3.org/2000/svg"><g fill-rule="nonzero" transform="matrix(1.21941 0 0 1.21941 100 134.008)"><g><path d="m171.037 67.905 19.181-21.552-19.181-21.555h20.238l9.5 10.47 9.148-10.47h19.532l-19.09 21.466 19.352 21.641h-20.321l-9.414-10.556-9.325 10.556z" fill="#f60"/><path d="m171.037 15.135h-21.724v9.663h21.724v14.563h-21.724v13.367h21.724v15.177h-37.691v-67.905h37.691z" fill="#f60"/><path d="m117.446 0v27.79h-.175c-3.52-4.046-7.918-5.452-13.021-5.452-10.453 0-18.327 7.106-21.091 16.501-3.152-10.352-11.281-16.695-23.335-16.695-9.789 0-17.519 4.394-21.553 11.554v-8.899h-20.234v-9.662h22.081v-15.137h-40.118v67.906h18.037v-28.545h17.978c-.536 2.097-.822 4.342-.822 6.711 0 14.165 10.821 24.104 24.631 24.104 11.613 0 19.266-5.452 23.314-15.392h-15.457c-2.091 2.986-3.677 3.873-7.857 3.873-4.847 0-9.026-4.229-9.026-9.242h31.474c1.365 11.251 10.129 20.954 22.156 20.954 5.188 0 9.938-2.552 12.843-6.861h.175v4.396h15.9v-67.904zm-66.146 39.564c1.003-4.313 4.348-7.132 8.524-7.132 4.597 0 7.772 2.732 8.607 7.132zm56.497 18.002c-5.861 0-9.503-5.461-9.503-11.163 0-6.095 3.168-11.956 9.503-11.956 6.569 0 9.186 5.861 9.186 11.956-.001 5.78-2.774 11.163-9.186 11.163z" fill="#652c8f"/></g><g fill="#652c8f"><path d="m142.101 100.44c2.455 0 5.109-1.445 5.615-4.032h2.418c-.872 3.73-4.101 5.846-8.098 5.846-7.394 0-10.385-5.712-10.385-12.565 0-6.854 2.991-12.568 10.385-12.568 3.998 0 7.226 2.115 8.098 5.848h-2.418c-.505-2.59-3.16-4.03-5.615-4.03-6.083 0-8.132 5.543-8.132 10.752 0 5.204 2.05 10.749 8.132 10.749z"/><path d="m160.216 102.254c-5.178 0-7.964-3.998-7.964-8.904 0-4.905 2.786-8.904 7.964-8.904 5.173 0 7.964 3.999 7.964 8.904 0 4.906-2.791 8.904-7.964 8.904zm0-1.546c4.066 0 5.779-3.694 5.779-7.358 0-3.661-1.713-7.359-5.779-7.359-4.067 0-5.782 3.698-5.782 7.359 0 3.663 1.714 7.358 5.782 7.358z"/><path d="m178.861 86.426c-3.391 0-4.567 2.859-4.567 5.813v9.615h-2.05v-11.998c0-1.644-.034-3.329-.1-5.008h2.013l.137 2.451c1.011-1.946 2.687-2.855 4.938-2.855.303 0 .64.034.944.066v2.052c-.474-.065-.842-.136-1.315-.136z"/><path d="m184.531 108.236h-2.051v-18.314c0-1.68 0-3.395-.103-5.072h2.017l.068 2.556c1.275-2.021 2.957-2.96 5.479-2.96 5.24 0 7.492 4.337 7.492 8.904 0 4.572-2.252 8.904-7.492 8.904-2.354 0-4.201-.902-5.41-2.854zm10.719-14.887c0-3.627-1.514-7.191-5.546-7.191-3.795 0-5.173 3.128-5.173 7.191 0 4.068 1.378 7.19 5.173 7.19 4.032.001 5.546-3.558 5.546-7.19z"/><path d="m207.988 102.254c-5.178 0-7.965-3.998-7.965-8.904 0-4.905 2.787-8.904 7.965-8.904 5.172 0 7.964 3.999 7.964 8.904-.001 4.906-2.793 8.904-7.964 8.904zm0-1.546c4.064 0 5.779-3.694 5.779-7.358 0-3.661-1.715-7.359-5.779-7.359-4.069 0-5.782 3.698-5.782 7.359-.001 3.663 1.712 7.358 5.782 7.358z"/><path d="m226.639 86.426c-3.396 0-4.57 2.859-4.57 5.813v9.615h-2.051v-11.998c0-1.644-.033-3.329-.104-5.008h2.02l.135 2.451c1.007-1.946 2.688-2.855 4.938-2.855.306 0 .638.034.94.066v2.052c-.467-.065-.842-.136-1.308-.136z"/><path d="m240.023 101.854c-.137-.811-.201-1.38-.267-2.287-1.313 1.98-3.024 2.687-5.684 2.687-3.091 0-5.914-1.577-5.914-5.005 0-4.94 5.209-5.679 9.378-5.679.805 0 1.479.033 1.98.064v-1.277c0-2.886-1.177-4.368-4.168-4.368-2.181 0-3.727.841-3.996 3.259h-2.052c.034-3.66 3.226-4.804 6.048-4.804 4.203 0 6.221 1.144 6.221 5.343v5.779c0 2.624.099 4.169.404 6.288zm-.503-8.673c-.572-.032-1.041-.063-1.613-.063-2.823 0-7.561.165-7.561 4.063 0 2.353 1.948 3.525 4.103 3.525 3.427 0 5.071-2.013 5.071-5.943z"/><path d="m250.441 102.254c-2.452 0-3.596-1.442-3.596-3.896v-11.963h-2.759v-1.546h2.759v-3.462l2.049-.906v4.368h3.766v1.546h-3.766v11.058c0 2.384.402 3.088 2.115 3.088.643 0 1.446-.232 1.817-.437v1.751c-.706.199-1.31.399-2.385.399z"/><path d="m255.372 80.109v-2.555h2.452v2.555zm.201 21.745v-17.005h2.05v17.006z"/><path d="m269.656 102.254c-5.176 0-7.965-3.998-7.965-8.904 0-4.905 2.789-8.904 7.965-8.904s7.964 3.999 7.964 8.904c-.001 4.906-2.789 8.904-7.964 8.904zm0-1.546c4.066 0 5.779-3.694 5.779-7.358 0-3.661-1.713-7.359-5.779-7.359-4.065 0-5.78 3.698-5.78 7.359-.001 3.663 1.714 7.358 5.78 7.358z"/><path d="m283.596 84.849.067 2.556c1.179-1.986 3.022-2.96 5.513-2.96 4.536 0 6.049 2.485 6.049 6.755v10.655h-2.051v-9.851c0-3.157-.738-5.848-4.335-5.848-3.829 0-5.106 3.396-5.106 6.755v8.942h-2.051v-11.931c0-1.68-.033-3.395-.099-5.072h2.013z"/></g></g></svg>

<?xml version="1.0" encoding="UTF-8" standalone="no"?>
<!DOCTYPE svg PUBLIC "-//W3C//DTD SVG 1.1//EN" "http://www.w3.org/Graphics/SVG/1.1/DTD/svg11.dtd">
<svg width="100%" height="100%" viewBox="0 0 560 400" version="1.1" xmlns="http://www.w3.org/2000/svg" xmlns:xlink="http://www.w3.org/1999/xlink" xml:space="preserve" xmlns:serif="http://www.serif.com/" style="fill-rule:evenodd;clip-rule:evenodd;stroke-linejoin:round;stroke-miterlimit:1.41421;">
    <g transform="matrix(1.21941,0,0,1.21941,100,134.008)">
        <g id="g15">
            <g id="g17">
                <path id="polygon19" d="M171.037,67.905L190.218,46.353L171.037,24.798L191.275,24.798L200.775,35.268L209.923,24.798L229.455,24.798L210.365,46.264L229.717,67.905L209.396,67.905L199.982,57.349L190.657,67.905L171.037,67.905Z" style="fill:rgb(255,102,0);fill-rule:nonzero;"/>
                <path id="polygon21" d="M171.037,15.135L149.313,15.135L149.313,24.798L171.037,24.798L171.037,39.361L149.313,39.361L149.313,52.728L171.037,52.728L171.037,67.905L133.346,67.905L133.346,0L171.037,0L171.037,15.135Z" style="fill:rgb(255,102,0);fill-rule:nonzero;"/>
            </g>
            <path id="path23" d="M117.446,0L117.446,27.79L117.271,27.79C113.751,23.744 109.353,22.338 104.25,22.338C93.797,22.338 85.923,29.444 83.159,38.839C80.007,28.487 71.878,22.144 59.824,22.144C50.035,22.144 42.305,26.538 38.271,33.698L38.271,24.799L18.037,24.799L18.037,15.137L40.118,15.137L40.118,0L0,0L0,67.906L18.037,67.906L18.037,39.361L36.015,39.361C35.479,41.458 35.193,43.703 35.193,46.072C35.193,60.237 46.014,70.176 59.824,70.176C71.437,70.176 79.09,64.724 83.138,54.784L67.681,54.784C65.59,57.77 64.004,58.657 59.824,58.657C54.977,58.657 50.798,54.428 50.798,49.415L82.272,49.415C83.637,60.666 92.401,70.369 104.428,70.369C109.616,70.369 114.366,67.817 117.271,63.508L117.446,63.508L117.446,67.904L133.346,67.904L133.346,0L117.446,0ZM51.3,39.564C52.303,35.251 55.648,32.432 59.824,32.432C64.421,32.432 67.596,35.164 68.431,39.564C68.783,39.564 51.3,39.564 51.3,39.564ZM107.797,57.566C101.936,57.566 98.294,52.105 98.294,46.403C98.294,40.308 101.462,34.447 107.797,34.447C114.366,34.447 116.983,40.308 116.983,46.403C116.982,52.183 114.209,57.566 107.797,57.566Z" style="fill:rgb(101,44,143);fill-rule:nonzero;"/>
        </g>
        <g id="g27">
            <path id="path29" d="M142.101,100.44C144.556,100.44 147.21,98.995 147.716,96.408L150.134,96.408C149.262,100.138 146.033,102.254 142.036,102.254C134.642,102.254 131.651,96.542 131.651,89.689C131.651,82.835 134.642,77.121 142.036,77.121C146.034,77.121 149.262,79.236 150.134,82.969L147.716,82.969C147.211,80.379 144.556,78.939 142.101,78.939C136.018,78.939 133.969,84.482 133.969,89.691C133.969,94.895 136.019,100.44 142.101,100.44Z" style="fill:rgb(101,44,143);fill-rule:nonzero;"/>
            <path id="path31" d="M160.216,102.254C155.038,102.254 152.252,98.256 152.252,93.35C152.252,88.445 155.038,84.446 160.216,84.446C165.389,84.446 168.18,88.445 168.18,93.35C168.18,98.256 165.389,102.254 160.216,102.254ZM160.216,100.708C164.282,100.708 165.995,97.014 165.995,93.35C165.995,89.689 164.282,85.991 160.216,85.991C156.149,85.991 154.434,89.689 154.434,93.35C154.434,97.013 156.148,100.708 160.216,100.708Z" style="fill:rgb(101,44,143);fill-rule:nonzero;"/>
            <path id="path33" d="M178.861,86.426C175.47,86.426 174.294,89.285 174.294,92.239L174.294,101.854L172.244,101.854L172.244,89.856C172.244,88.212 172.21,86.527 172.144,84.848L174.157,84.848L174.294,87.299C175.305,85.353 176.981,84.444 179.232,84.444C179.535,84.444 179.872,84.478 180.176,84.51L180.176,86.562C179.702,86.497 179.334,86.426 178.861,86.426Z" style="fill:rgb(101,44,143);fill-rule:nonzero;"/>
            <path id="path35" d="M184.531,108.236L182.48,108.236L182.48,89.922C182.48,88.242 182.48,86.527 182.377,84.85L184.394,84.85L184.462,87.406C185.737,85.385 187.419,84.446 189.941,84.446C195.181,84.446 197.433,88.783 197.433,93.35C197.433,97.922 195.181,102.254 189.941,102.254C187.587,102.254 185.74,101.352 184.531,99.4L184.531,108.236ZM195.25,93.349C195.25,89.722 193.736,86.158 189.704,86.158C185.909,86.158 184.531,89.286 184.531,93.349C184.531,97.417 185.909,100.539 189.704,100.539C193.736,100.54 195.25,96.981 195.25,93.349Z" style="fill:rgb(101,44,143);fill-rule:nonzero;"/>
            <path id="path37" d="M207.988,102.254C202.81,102.254 200.023,98.256 200.023,93.35C200.023,88.445 202.81,84.446 207.988,84.446C213.16,84.446 215.952,88.445 215.952,93.35C215.951,98.256 213.159,102.254 207.988,102.254ZM207.988,100.708C212.052,100.708 213.767,97.014 213.767,93.35C213.767,89.689 212.052,85.991 207.988,85.991C203.919,85.991 202.206,89.689 202.206,93.35C202.205,97.013 203.918,100.708 207.988,100.708Z" style="fill:rgb(101,44,143);fill-rule:nonzero;"/>
            <path id="path39" d="M226.639,86.426C223.243,86.426 222.069,89.285 222.069,92.239L222.069,101.854L220.018,101.854L220.018,89.856C220.018,88.212 219.985,86.527 219.914,84.848L221.934,84.848L222.069,87.299C223.076,85.353 224.757,84.444 227.007,84.444C227.313,84.444 227.645,84.478 227.947,84.51L227.947,86.562C227.48,86.497 227.105,86.426 226.639,86.426Z" style="fill:rgb(101,44,143);fill-rule:nonzero;"/>
            <path id="path41" d="M240.023,101.854C239.886,101.043 239.822,100.474 239.756,99.567C238.443,101.547 236.732,102.254 234.072,102.254C230.981,102.254 228.158,100.677 228.158,97.249C228.158,92.309 233.367,91.57 237.536,91.57C238.341,91.57 239.015,91.603 239.516,91.634L239.516,90.357C239.516,87.471 238.339,85.989 235.348,85.989C233.167,85.989 231.621,86.83 231.352,89.248L229.3,89.248C229.334,85.588 232.526,84.444 235.348,84.444C239.551,84.444 241.569,85.588 241.569,89.787L241.569,95.566C241.569,98.19 241.668,99.735 241.973,101.854L240.023,101.854ZM239.52,93.181C238.948,93.149 238.479,93.118 237.907,93.118C235.084,93.118 230.346,93.283 230.346,97.181C230.346,99.534 232.294,100.706 234.449,100.706C237.876,100.706 239.52,98.693 239.52,94.763L239.52,93.181Z" style="fill:rgb(101,44,143);fill-rule:nonzero;"/>
            <path id="path43" d="M250.441,102.254C247.989,102.254 246.845,100.812 246.845,98.358L246.845,86.395L244.086,86.395L244.086,84.849L246.845,84.849L246.845,81.387L248.894,80.481L248.894,84.849L252.66,84.849L252.66,86.395L248.894,86.395L248.894,97.453C248.894,99.837 249.296,100.541 251.009,100.541C251.652,100.541 252.455,100.309 252.826,100.104L252.826,101.855C252.12,102.054 251.516,102.254 250.441,102.254Z" style="fill:rgb(101,44,143);fill-rule:nonzero;"/>
            <path id="path45" d="M255.372,80.109L255.372,77.554L257.824,77.554L257.824,80.109L255.372,80.109ZM255.573,101.854L255.573,84.849L257.623,84.849L257.623,101.855L255.573,101.854Z" style="fill:rgb(101,44,143);fill-rule:nonzero;"/>
            <path id="path47" d="M269.656,102.254C264.48,102.254 261.691,98.256 261.691,93.35C261.691,88.445 264.48,84.446 269.656,84.446C274.832,84.446 277.62,88.445 277.62,93.35C277.619,98.256 274.831,102.254 269.656,102.254ZM269.656,100.708C273.722,100.708 275.435,97.014 275.435,93.35C275.435,89.689 273.722,85.991 269.656,85.991C265.591,85.991 263.876,89.689 263.876,93.35C263.875,97.013 265.59,100.708 269.656,100.708Z" style="fill:rgb(101,44,143);fill-rule:nonzero;"/>
            <path id="path49" d="M283.596,84.849L283.663,87.405C284.842,85.419 286.685,84.445 289.176,84.445C293.712,84.445 295.225,86.93 295.225,91.2L295.225,101.855L293.174,101.855L293.174,92.004C293.174,88.847 292.436,86.156 288.839,86.156C285.01,86.156 283.733,89.552 283.733,92.911L283.733,101.853L281.682,101.853L281.682,89.922C281.682,88.242 281.649,86.527 281.583,84.85L283.596,84.85L283.596,84.849Z" style="fill:rgb(101,44,143);fill-rule:nonzero;"/>
        </g>
    </g>
</svg>
